X:336
T:The Honey Moon
S:Colin Hume's website,  colinhume.com  - chords can also be printed below the stave.
Q:1/4=110
M:2/4
L:1/8
C:Preston, 1806
B:Preston: 24 Country Dances for the year 1806
%%MIDI ratio 3 1
K:D
P:A
|: "D"(Ad) dd | "/"df fa | "Em"gfed | "A7"(ce)A2 | "D"(Ad)dd | "/"dffa | "Em"gf"A7"ge | "D"d2d2 :|
P:B
|: "D"(dA)A2 | "G"(B>d)d2 | "D"AFED | "A7"C>EE2 | "D"(d>A) A2 | "G"Bcde | "D"f>g"A7"e>f | "D"d2d2 :|

